X:1
T:Ach lieblichs  Bild
T:Antonio Brunelli
T:Source : Tricinia---Johann-Jacob Gastoldi und anderer Autorn---Nürnberg---P.Kauffmann---1607. Editor : André Vierendeels (21/03/17).
T:Notes : Original clefs : C1, C1, F4 Editorial accidentals above the staff Text Middle German by Valentin Hauszmann Sub-heading : from "Affetuoso Invaghito" m 13 in S 2 : 1/2 rest to much in original print
T:Ach lieblichs  Bild
T:©
T:©
T:©
T:©
C:Antonio Brunelli
Z:©
%%score [ 1 2 3 ]
L:1/8
Q:1/4=120
M:4/4
K:F
V:1 treble nm="Soprano 1" snm="S 1"
V:2 treble nm="Soprano 2" snm="S 2"
V:3 bass nm="Bass" snm="B"
V:1
"^1)" z4 d4- | d2 AA B4- | B4 z2 _ee | _e2 d2 c4 | d4 c4 | A2 A3 A G2 | A8 | A4 z2 F2 | E4 z2 ^c2 | %9
w: Ach|_ lieb- lichs Bild,|_ lieb- lichs|Bild mir sag-|te, was|wilt du mit der|pla-|ge, was|wilt, was|
w: Welchs|_ mi ge- walt;|_ mit ge-|walt thut brin-|nen, A-|mor herz- schet dar-|in-|nen, A-|mor A-|
 d2 =B3 B d2 | A8 |[M:2/4] G4 ::[M:4/4] c6 c2 | c2 cc c4- | c2 c3 d _e2 | d4 c4- | c4 z2 F2 | %17
w: wilt du mit der|pla-|ge,|die du|mir al- le stund|_ schmerz- lich auff-|le- gest,|_ und|
w: mor herz- schet dar-|in-|nen,|durch dein|schö- ne ge- stallt,|_ die mich ge-|fan- gen,|_ von|
 CDEF GABG | A4 B2 _E2 | FGAB cd_ec | d6 cB | A4 !fermata!G4 :| %22
w: ein gross feur in mei- nem Hert- zen|re- gest, und|ein gross feur in mei- nem Hert- zen|re- * *|* gest?|
w: der ist mir die Brunst ans Hertz ge-|gan- gen, von|dir ist mir die Brunst ans Hertz ge-|gan- * *|* gen.|
V:2
"^2)""^1)" B6 AA | A4 G4 | GG G4 G2 | A2 B4 A2 | B6 A2 | ^F2 F3 F G2 | ^F8 | ^F2 d2 A4 | z2 A2 E4 | %9
w: Ach lieb- lichs|Bild, ach|lieb- lichs Bild mir|sa- * *|gte, was|wilt du mit der|pla-|ge, was wilt,|was wilt|
w: O möcht es|dir, O|möcht es dir kunth|wer- * *|den, was|ich las- se für|zehr-|den, was ich,|wa ich|
 D3 D G2 G2- | G2 ^FE F4 |[M:2/4] G4 ::[M:4/4] A6 A2 | A2 AA A4- | A2 A3 B c2- | c2 =B2 c4 | %16
w: du mit der pla-||ge,|die du|mir a- le stund|_ schmerz- lich auff-|* le- gest,|
w: las- se für zehr-||den,|und was|ich für ein leid|_ jäm- mer- lich|_ trei- be,|
 z2 C2 DEFG | ABcA B4 | c2 F2 GABc | defd _e4 | dDDE ^F2 G2- | G2 ^F2 !fermata!G4 :| %22
w: und ein gross feur in|mei- nem Hert- zen re-|gest, und ein gross feur in|mei- nem Hert- zen re-|gest, in mei- nem Hert- zen|_ re- gest?|
w: du wend- test ab die|plag von mei- nem Lei-|be, du wend- test ab die|plag von mei- nem Lei-|be, von mei- nem Lei- *|* * be.|
V:3
"^3)""^1)""^4)" G,6 ^F,F, | ^F,4 z2 G,2- | G,2 _E,E, E,2 E,2 | F,8 | B,,4 C,4 | D,2 D,3 D, _E,2 | %6
w: Ach lieb- lichs|Bild, ach|_ lieb- lichs Bild mir|sa-|gte, was|wilt du mit der|
w: Du a- ber|weists, du|_ a- ber wests mit|nich-|te, dein|hart Hertz steht im|
 D,8 | D,4 z2 D,2 | A,,4 z2 A,2 | ^F,2 G,3 G,, =B,,2 | D,8 |[M:2/4] G,,4 ::[M:4/4] F,,6 F,,2 | %13
w: pla-|ge, was|wilt, was|wilt du mit der|pla-|ge,|die du|
w: liech-|te, dein|hart, dein|hart Hertz steht im|liech-|te,|Dar- umd|
 F,2 F,F, F,4- | F,2 F,3 D, C,2 | G,,4 C,4 | C4 B,4 | A,4 G,4 | F,4 _E,4 | D,4 C,4 | =B,,4 D,4- | %21
w: mir al- le stund|_ schmerz- lich auff-|le- gest,|und ein|gross feur|in mei-|nem Hert-|zen re-|
w: zu dir ich we-|* nig hoff- nung|ha- be,|dasz du|mir helff-|est mei-|nes lei-|des a-|
 D,4 !fermata!G,,4 :| %22
w: * gest?|
w: * be.|

